icons/24x24_settings_filled.svg

<svg xmlns="http://www.w3.org/2000/svg" width="24" height="24" viewBox="0 0 24 24">
  <path d="M11.0139293,2.1 C11.4739293,2.03 11.9439293,2 12.4239293,2 C12.9039293,2 13.3739293,2.03 13.8339293,2.1 C14.7339293,2.22 15.3739293,2.93 15.5639293,3.81 C15.6739293,4.34 16.0039293,4.83 16.5139293,5.13 C16.8239293,5.31 17.1739293,5.4 17.5139293,5.4 C17.7239293,5.4 17.9239293,5.37 18.1239293,5.31 C18.3629293,5.233 18.6099293,5.194 18.8509293,5.194 C19.4269293,5.194 19.9779293,5.418 20.3439293,5.89 C20.8939293,6.61 21.3439293,7.4 21.6939293,8.24 C22.0139293,9.04 21.8339293,10.01 21.1639293,10.56 C20.7439293,10.9 20.4639293,11.41 20.4239293,12 C20.4639293,12.59 20.7439293,13.1 21.1639293,13.44 C21.8339293,13.99 22.0139293,14.96 21.6939293,15.76 C21.3439293,16.6 20.8939293,17.39 20.3439293,18.11 C19.9779293,18.582 19.4269293,18.806 18.8509293,18.806 C18.6099293,18.806 18.3629293,18.767 18.1239293,18.69 C17.9239293,18.63 17.7239293,18.6 17.5139293,18.6 C17.1739293,18.6 16.8239293,18.69 16.5139293,18.87 C16.0039293,19.17 15.6739293,19.66 15.5639293,20.19 C15.3739293,21.07 14.7339293,21.78 13.8339293,21.9 C13.3739293,21.97 12.9039293,22 12.4239293,22 C11.9439293,22 11.4739293,21.97 11.0139293,21.9 C10.1139293,21.78 9.47392926,21.07 9.28392926,20.19 C9.17392926,19.66 8.84392926,19.17 8.33392926,18.87 C8.02392926,18.69 7.67392926,18.6 7.33392926,18.6 C7.12392926,18.6 6.92392926,18.63 6.72392926,18.69 C6.48492926,18.767 6.23892926,18.806 5.99692926,18.806 C5.42092926,18.806 4.86992926,18.582 4.50392926,18.11 C3.95392926,17.39 3.50392926,16.6 3.15392926,15.76 C2.83392926,14.96 3.01392926,13.99 3.68392926,13.44 C4.10392926,13.1 4.38392926,12.59 4.42392926,12 C4.38392926,11.41 4.10392926,10.9 3.68392926,10.56 C3.01392926,10.01 2.83392926,9.04 3.15392926,8.24 C3.50392926,7.4 3.95392926,6.61 4.50392926,5.89 C4.86992926,5.418 5.42092926,5.194 5.99692926,5.194 C6.23892926,5.194 6.48492926,5.233 6.72392926,5.31 C6.92392926,5.37 7.12392926,5.4 7.33392926,5.4 C7.67392926,5.4 8.02392926,5.31 8.33392926,5.13 C8.84392926,4.83 9.17392926,4.34 9.28392926,3.81 C9.47392926,2.93 10.1139293,2.22 11.0139293,2.1 Z M12.5,16 C14.709139,16 16.5,14.209139 16.5,12 C16.5,9.790861 14.709139,8 12.5,8 C10.290861,8 8.5,9.790861 8.5,12 C8.5,14.209139 10.290861,16 12.5,16 Z"/>
</svg>

<svg width="24" height="24" fill="none" xmlns="http://www.w3.org/2000/svg"><path d="M11.014 2.1c.46-.07.93-.1 1.41-.1.48 0 .95.03 1.41.1.9.12 1.54.83 1.73 1.71.11.53.44 1.02.95 1.32.31.18.66.27 1 .27.21 0 .41-.03.61-.09a2.38 2.38 0 0 1 .727-.116c.576 0 1.127.224 1.493.696.55.72 1 1.51 1.35 2.35.32.8.14 1.77-.53 2.32-.42.34-.7.85-.74 1.44.04.59.32 1.1.74 1.44.67.55.85 1.52.53 2.32-.35.84-.8 1.63-1.35 2.35-.366.472-.917.696-1.493.696a2.38 2.38 0 0 1-.727-.116c-.2-.06-.4-.09-.61-.09-.34 0-.69.09-1 .27-.51.3-.84.79-.95 1.32-.19.88-.83 1.59-1.73 1.71-.46.07-.93.1-1.41.1-.48 0-.95-.03-1.41-.1-.9-.12-1.54-.83-1.73-1.71-.11-.53-.44-1.02-.95-1.32-.31-.18-.66-.27-1-.27-.21 0-.41.03-.61.09a2.375 2.375 0 0 1-.727.116c-.576 0-1.127-.224-1.493-.696-.55-.72-1-1.51-1.35-2.35-.32-.8-.14-1.77.53-2.32.42-.34.7-.85.74-1.44-.04-.59-.32-1.1-.74-1.44-.67-.55-.85-1.52-.53-2.32.35-.84.8-1.63 1.35-2.35.366-.472.917-.696 1.493-.696.242 0 .488.039.727.116.2.06.4.09.61.09.34 0 .69-.09 1-.27.51-.3.84-.79.95-1.32.19-.88.83-1.59 1.73-1.71ZM12.5 16a4 4 0 1 0 0-8 4 4 0 0 0 0 8Z" fill="#000"/></svg>
